X:107
T:Li'a proun de gent
R:Nol
O:France
A:Provence
C:Parole de Nicolas Saboly
C:Trad.
M:2/4
L:1/8
K:Am
V:1
A2 B ^G | A2 z c | B c d B | c2 B2 | A2 B ^G | A2 zc | B c d B | c2 z2 | e2 d c |
V:2
E4 | E4 | E4 | E4 |
%%footer $D   Galouvielle-MBe 2005 \nNol France
